packages/core/src/svgs/tokens/mono/TAROT.svg

<svg width="24" height="24" viewBox="0 0 24 24" fill="none" xmlns="http://www.w3.org/2000/svg">
<path fill-rule="evenodd" clip-rule="evenodd" d="M19.2891 14.1997C18.9335 14.3996 18.7335 14.683 18.6613 15.0663C18.6224 15.2996 18.7058 15.6051 18.7724 15.8219C18.9946 16.5997 19.1836 17.2664 19.328 17.8108C19.389 18.0663 19.4335 18.444 19.328 18.6997C19.1613 19.0552 18.8169 19.3719 18.4058 19.3829C18.1613 19.3829 17.9224 19.3552 17.6835 19.2942C17.1057 19.1386 16.5168 18.9719 15.9002 18.794C15.389 18.6385 14.8557 18.5497 14.4391 18.9719C14.3279 19.0941 14.2112 19.2497 14.1057 19.433L13.8668 19.8775C13.5823 20.4258 13.2708 20.9598 12.9335 21.4774C12.678 21.8608 12.3335 22.033 11.9002 21.9941C11.6513 21.9818 11.4165 21.8744 11.2446 21.6941C11.0779 21.5163 10.9057 21.2775 10.7391 20.9774L9.87795 19.4218C9.81677 19.3107 9.74456 19.1997 9.66678 19.0886C9.30015 18.5886 8.71126 18.6052 8.18348 18.7607C7.57236 18.9442 6.96125 19.1219 6.34459 19.2886C6.18903 19.3275 6.02236 19.3496 5.86125 19.3719C5.6392 19.412 5.41016 19.3804 5.20735 19.2814C5.00455 19.1825 4.83856 19.0215 4.73347 18.8219C4.60569 18.6052 4.5668 18.3552 4.62236 18.0719C4.67236 17.8108 4.73347 17.5719 4.78903 17.3441L5.28347 15.6219C5.34597 15.4397 5.36244 15.245 5.33144 15.0551C5.30042 14.8651 5.22286 14.6857 5.10569 14.533C4.99458 14.3886 4.76125 14.2163 4.41124 14.0274L3.04457 13.2774C2.80015 13.14 2.56783 12.9819 2.35013 12.8051C1.99456 12.5219 1.93346 12.0273 2.06123 11.6051C2.16679 11.283 2.51679 11.0385 2.81679 10.8663C3.32235 10.5719 3.85013 10.2773 4.40568 9.97738C4.65259 9.86045 4.87798 9.70269 5.07236 9.51071C5.40569 9.08851 5.38347 8.69407 5.22791 8.1774C5.02022 7.50873 4.83126 6.8344 4.66125 6.15516C4.6213 5.99525 4.60078 5.8311 4.60013 5.66627C4.60013 5.36072 4.74458 5.08294 5.03347 4.83295C5.45014 4.49405 6.0168 4.62183 6.47791 4.75515L8.11125 5.22184C8.63904 5.37738 9.14459 5.43294 9.5391 5.04961C9.65576 4.93849 9.77243 4.77182 9.89454 4.54405C10.2613 3.86627 10.6168 3.23293 10.9724 2.63849C11.0279 2.5496 11.1057 2.45515 11.2058 2.34403C11.3174 2.22507 11.4544 2.13274 11.6066 2.07386C11.7588 2.01497 11.9222 1.99104 12.0849 2.00385C12.2476 2.01664 12.4053 2.06585 12.5465 2.14781C12.6876 2.22978 12.8085 2.3424 12.9001 2.47737C13.0613 2.6996 13.2057 2.93849 13.3446 3.18294L14.1891 4.70516C14.5169 5.27738 15.0224 5.46628 15.7113 5.26071C16.3447 5.08294 16.9946 4.89405 17.6558 4.71627C17.8225 4.66627 18.0002 4.64405 18.1725 4.62183C18.3781 4.59203 18.5879 4.62358 18.7756 4.71253C18.9635 4.80147 19.1207 4.94386 19.2279 5.12183C19.4335 5.43294 19.4113 5.84406 19.328 6.17739C19.1538 6.84707 18.9686 7.51384 18.7724 8.1774C18.7279 8.31073 18.6946 8.45517 18.6724 8.61073C18.5835 9.11074 18.839 9.55517 19.2835 9.79966L20.8502 10.6718C21.0836 10.7996 21.3057 10.944 21.5169 11.094C21.8891 11.3552 22.0446 11.7052 21.989 12.1496C21.9557 12.4385 21.8225 12.6719 21.5891 12.8552C21.3835 13.0107 21.1613 13.1551 20.9224 13.2885L19.2891 14.1997ZM18.6835 13.183C18.2033 13.4462 17.8304 13.8691 17.6294 14.3786C17.4285 14.888 17.4123 15.4517 17.5836 15.9719C17.7613 16.6052 17.928 17.1996 18.0947 17.7552C18.128 17.8774 18.1557 18.0108 18.1725 18.1441C18.1725 18.1718 18.1669 18.183 18.1446 18.1774C17.9336 18.1385 17.7168 18.0886 17.4946 18.0218L16.2613 17.6608C15.9423 17.5583 15.6121 17.4949 15.278 17.4718C14.2447 17.4608 13.5335 18.0052 13.0557 18.8885C12.7213 19.5052 12.3767 20.1164 12.0224 20.7219C12.0172 20.7249 12.0117 20.7268 12.0058 20.7275C12 20.7283 11.994 20.7279 11.9883 20.7263C11.9826 20.7248 11.9773 20.7222 11.9726 20.7185C11.968 20.7149 11.9641 20.7104 11.9612 20.7052L11.8613 20.5386C11.5147 19.9162 11.1647 19.2958 10.8113 18.6774C10.5548 18.2128 10.1475 17.8494 9.65654 17.6473C9.16565 17.4454 8.62057 17.4169 8.11125 17.5663C7.57236 17.7107 7.04459 17.8607 6.52236 18.0108C6.2922 18.0789 6.05853 18.1345 5.82236 18.1774C5.81449 18.1749 5.80785 18.1695 5.80374 18.1622C5.79963 18.1551 5.79835 18.1467 5.80014 18.1385C5.99378 17.4001 6.19936 16.6647 6.4168 15.933L6.43902 15.844C6.47791 15.6775 6.52236 15.5108 6.52236 15.3441C6.5435 14.8793 6.42589 14.4188 6.18449 14.0211C5.94311 13.6234 5.58884 13.3065 5.16681 13.1108C4.53059 12.7565 3.89723 12.3973 3.26679 12.0329C3.26372 12.0286 3.26155 12.0237 3.26044 12.0185C3.25934 12.0133 3.2593 12.008 3.26034 12.0027C3.26139 11.9975 3.26347 11.9926 3.26649 11.9883C3.26951 11.9839 3.2734 11.9802 3.2779 11.9774C3.4168 11.8885 3.55569 11.8107 3.68346 11.7385L5.33347 10.8108C5.63742 10.6455 5.90018 10.4138 6.10218 10.1329C6.30417 9.85203 6.4402 9.52925 6.50014 9.18852C6.56682 8.75355 6.52484 8.30885 6.37791 7.89406C6.18213 7.21771 5.99138 6.53991 5.80569 5.86072C5.80744 5.85404 5.81094 5.84795 5.81581 5.84306C5.8207 5.83819 5.82679 5.83469 5.83347 5.83294H5.85014C5.98348 5.85517 6.11125 5.88294 6.23903 5.91628L7.58903 6.30517C8.08903 6.45516 8.46681 6.53294 8.72236 6.5385C9.38348 6.54961 9.95016 6.31628 10.4224 5.85517C10.578 5.69961 10.7335 5.48294 10.8891 5.20517C11.2471 4.55981 11.6101 3.91721 11.978 3.27738C11.983 3.27445 11.9887 3.27291 11.9946 3.27291C12.0005 3.27291 12.0062 3.27445 12.0113 3.27738L12.0224 3.28293C12.1224 3.43294 12.2057 3.57737 12.2835 3.71071L13.1057 5.1885C13.2946 5.52183 13.5224 5.85517 13.8279 6.07738C14.2724 6.39962 14.7557 6.54961 15.2724 6.5385C15.6525 6.51142 16.0276 6.43675 16.389 6.31628L17.6113 5.95517C17.7983 5.90654 17.9875 5.86576 18.1779 5.83294L18.1835 5.84405V5.85517C18.1613 5.99962 18.128 6.13294 18.0891 6.26628C17.9336 6.8274 17.7724 7.39406 17.6057 7.95518C17.3446 8.85517 17.4891 9.77736 18.1613 10.4329C18.3558 10.6163 18.6724 10.8274 19.1168 11.0663C19.6557 11.3608 20.1835 11.6552 20.6947 11.9551C20.7502 11.9885 20.7502 12.0219 20.6947 12.0552C20.2336 12.333 19.7613 12.5941 19.2947 12.8552L18.689 13.1886L18.6835 13.183ZM15.9835 15.9385C16.766 15.1464 17.2968 14.1404 17.5089 13.0473C17.7211 11.9542 17.6052 10.8227 17.1759 9.79538C16.7464 8.76796 16.0228 7.8905 15.096 7.27341C14.169 6.65634 13.0803 6.32719 11.9668 6.32739C11.2266 6.32884 10.494 6.47643 9.81093 6.76172C9.12795 7.047 8.50799 7.46435 7.98666 7.98981C7.46533 8.51527 7.05288 9.1385 6.773 9.82377C6.49312 10.509 6.3513 11.2428 6.3557 11.983C6.3601 13.478 6.9575 14.9103 8.01676 15.9654C9.07603 17.0204 10.5107 17.6122 12.0057 17.6108C13.5002 17.6052 14.9279 17.0051 15.9835 15.9441V15.9385ZM13.2946 11.3163C13.5548 11.1768 13.8459 11.1053 14.1412 11.1081C14.4364 11.1111 14.7261 11.1884 14.9836 11.3329C15.128 11.3997 15.2391 11.4552 15.4058 11.3329L15.4391 11.3163C15.5335 11.2496 15.628 11.1885 15.678 11.0774C15.7558 10.8996 15.7002 10.7386 15.5335 10.6329C15.1232 10.3892 14.659 10.2505 14.1822 10.2293C13.7053 10.2079 13.2307 10.3046 12.8002 10.5107C12.5557 10.6329 12.0946 10.8885 12.0502 11.1829L12.0334 11.2607C12.0168 11.3608 12.0001 11.4552 12.0001 11.5497V14.5497H12.878C12.9398 14.5497 12.9992 14.5251 13.0429 14.4812C13.0867 14.4376 13.1113 14.3782 13.1113 14.3164V11.7774C13.1113 11.6107 13.1113 11.3997 13.2946 11.3108V11.3163ZM10.9391 10.9829C10.8335 11.283 10.5668 11.3385 10.289 11.283C9.85566 11.1941 9.34459 11.2274 8.9557 11.4386C8.84459 11.4996 8.73347 11.5052 8.63348 11.4552C8.51166 11.3923 8.40538 11.3031 8.32236 11.1941C8.29771 11.1603 8.28 11.1219 8.27027 11.0811C8.26054 11.0403 8.259 10.9981 8.26572 10.9567C8.27243 10.9154 8.28729 10.8758 8.3094 10.8403C8.33153 10.8047 8.36048 10.774 8.39459 10.7496C8.72741 10.5516 9.09681 10.423 9.48064 10.3715C9.86447 10.3199 10.2547 10.3464 10.628 10.4496C10.8891 10.5052 11.039 10.7051 10.9391 10.9829Z" fill="white"/>
</svg>

<svg xmlns="http://www.w3.org/2000/svg" width="24" height="24" fill="none" viewBox="0 0 24 24">
    <path fill="#fff" fill-rule="evenodd" d="M19.29 14.2c-.357.2-.556.483-.629.866-.039.234.045.54.111.756.223.778.412 1.444.556 1.989.061.255.105.633 0 .889-.167.355-.511.672-.922.683q-.366.001-.723-.089a104 104 0 0 1-1.783-.5c-.511-.155-1.044-.244-1.46.178a2.7 2.7 0 0 0-.334.461l-.24.445a19 19 0 0 1-.932 1.6q-.383.574-1.034.516a.97.97 0 0 1-.655-.3 3.6 3.6 0 0 1-.506-.717l-.861-1.555a4 4 0 0 0-.211-.333c-.367-.5-.956-.484-1.484-.328q-.915.275-1.838.528c-.156.038-.323.06-.484.083a1.06 1.06 0 0 1-1.128-.55 1.04 1.04 0 0 1-.11-.75c.05-.261.11-.5.166-.728l.494-1.722a1.17 1.17 0 0 0-.177-1.089c-.111-.144-.345-.317-.695-.506l-1.366-.75a5 5 0 0 1-.695-.472c-.355-.283-.417-.778-.289-1.2.106-.322.456-.566.756-.739a56 56 0 0 1 1.589-.889c.247-.117.472-.274.666-.466.334-.422.311-.817.156-1.334a38 38 0 0 1-.567-2.022 2 2 0 0 1-.06-.489q0-.458.432-.833c.417-.339.984-.211 1.445-.078l1.633.467c.528.155 1.034.21 1.428-.172q.174-.166.356-.506c.366-.678.722-1.311 1.077-1.906.056-.088.134-.183.234-.294a1.088 1.088 0 0 1 1.694.133c.161.223.306.461.445.706l.844 1.522c.328.572.833.761 1.522.556.634-.178 1.284-.367 1.945-.545.167-.05.344-.072.517-.094a1.06 1.06 0 0 1 1.055.5c.205.31.183.722.1 1.055a63 63 0 0 1-.556 2 2.5 2.5 0 0 0-.1.434c-.088.5.167.944.611 1.189l1.567.872c.234.128.456.272.667.422q.557.39.472 1.056a1 1 0 0 1-.4.705q-.308.233-.667.434zm-.607-1.017a2.344 2.344 0 0 0-1.1 2.789c.178.633.345 1.228.512 1.783.033.122.06.256.078.39 0 .027-.006.038-.028.032a6 6 0 0 1-.65-.155l-1.234-.361a4.2 4.2 0 0 0-.983-.19c-1.033-.01-1.745.534-2.222 1.418a65 65 0 0 1-1.034 1.833l-.016.005h-.018a.04.04 0 0 1-.027-.022l-.1-.166q-.519-.934-1.05-1.862a2.334 2.334 0 0 0-2.7-1.11 91 91 0 0 0-1.589.444q-.345.102-.7.166a.03.03 0 0 1-.018-.015.03.03 0 0 1-.004-.023q.291-1.108.617-2.206l.022-.089c.039-.166.083-.333.083-.5a2.34 2.34 0 0 0-1.355-2.233q-.954-.531-1.9-1.078a.04.04 0 0 1 .01-.056c.14-.088.279-.166.406-.239l1.65-.927A2.3 2.3 0 0 0 6.5 9.189c.067-.435.025-.88-.122-1.295q-.294-1.014-.572-2.033a.04.04 0 0 1 .027-.028h.017q.198.033.389.083l1.35.39q.75.225 1.133.232a2.3 2.3 0 0 0 1.7-.683q.233-.233.467-.65a144 144 0 0 1 1.089-1.928.03.03 0 0 1 .033 0l.011.006c.1.15.184.294.261.428l.823 1.478c.189.333.416.666.722.888a2.32 2.32 0 0 0 1.444.462c.38-.028.756-.102 1.117-.223l1.222-.36q.281-.074.567-.123l.005.011v.011a3 3 0 0 1-.094.411 96 96 0 0 1-.483 1.69c-.261.9-.117 1.821.555 2.477.195.183.511.394.956.633a60 60 0 0 1 1.578.89q.082.05 0 .1c-.461.277-.934.538-1.4.8l-.606.333zm-2.7 2.755a5.644 5.644 0 0 0-4.016-9.61 5.62 5.62 0 0 0-5.611 5.655 5.644 5.644 0 0 0 5.65 5.628 5.64 5.64 0 0 0 3.977-1.667zm-2.688-4.622a1.76 1.76 0 0 1 1.689.017c.144.067.255.122.422 0l.033-.017c.095-.066.189-.128.239-.239.078-.177.022-.338-.145-.444a2.9 2.9 0 0 0-2.733-.122c-.244.122-.705.378-.75.672l-.017.078c-.016.1-.033.194-.033.289v3h.878a.233.233 0 0 0 .233-.234v-2.539c0-.166 0-.377.184-.466zm-2.356-.333c-.105.3-.372.355-.65.3-.433-.089-.944-.056-1.333.156a.34.34 0 0 1-.323.016.9.9 0 0 1-.31-.26.316.316 0 0 1 .072-.445 2.87 2.87 0 0 1 2.233-.3c.261.055.411.255.311.533" clip-rule="evenodd"/>
</svg>
